public/build/img/departamentos.svg

<svg xmlns="http://www.w3.org/2000/svg" viewBox="0 0 940.47 834.08"><g data-name="Capa 5"><path d="M670.11 208.62c-3.73-36.34-30.86-64.53-63.77-64.53H390.83c-33.57 0-61.41 27.95-66.54 64.53a86.31 86.31 0 00-.86 12.23v481.67c0 37.11 26.41 67.19 59 67.19h229.13c32.59 0 59-30.08 59-67.19v-485.3a81.29 81.29 0 00-.45-8.6zM358 500.71a8.12 8.12 0 018.12-8.11h93.33a8.11 8.11 0 018.11 8.11v66.41a8.11 8.11 0 01-8.11 8.11h-93.3a8.12 8.12 0 01-8.12-8.11zm110.71 189.68a8.12 8.12 0 01-8.11 8.12h-93.33a8.12 8.12 0 01-8.11-8.12V624a8.12 8.12 0 018.11-8.12h93.33a8.12 8.12 0 018.11 8.12zm0-248.1a8.11 8.11 0 01-8.11 8.11h-93.33a8.11 8.11 0 01-8.11-8.11v-66.41a8.11 8.11 0 018.11-8.11h93.33a8.11 8.11 0 018.11 8.11zm0-124.83a8.12 8.12 0 01-8.11 8.12h-93.33a8.12 8.12 0 01-8.11-8.12v-66.4a8.11 8.11 0 018.11-8.11h93.33a8.11 8.11 0 018.11 8.11zm54.82 59.2a8.11 8.11 0 018.11-8.11H625a8.11 8.11 0 018.11 8.11v66.4a8.12 8.12 0 01-8.11 8.12h-93.36a8.12 8.12 0 01-8.11-8.12zm.21 124.61a8.11 8.11 0 018.11-8.11h93.33a8.11 8.11 0 018.11 8.11v66.41a8.11 8.11 0 01-8.11 8.11h-93.33a8.11 8.11 0 01-8.11-8.11zm110.11 189.12a8.12 8.12 0 01-8.11 8.12h-93.33a8.12 8.12 0 01-8.11-8.12V624a8.12 8.12 0 018.11-8.12h93.33a8.12 8.12 0 018.11 8.12zm0-372.93a8.12 8.12 0 01-8.11 8.12h-93.33a8.12 8.12 0 01-8.11-8.12v-66.4a8.11 8.11 0 018.11-8.11h93.33a8.11 8.11 0 018.11 8.11z"/><path d="M315.26 159.45l-34.17 49.17H700.7c4.77 0 7.16-8.3 3.79-13.15l-26-37.36c-12.06-17.36-28.43-27.07-45.48-27l-272.76 1.34c-16.85.1-33.04 9.8-44.99 27z"/><path d="M369.13 109.77l-23.85 34.32h292.85c3.33 0 5-5.79 2.65-9.18l-18.12-26.07C614.24 96.73 602.82 90 590.92 90l-190.36 1c-11.8 0-23.1 6.77-31.43 18.77z"/></g></svg>

<svg xmlns="http://www.w3.org/2000/svg" viewBox="0 0 940.47 834.08"><title>DEPARTAMENTOS</title><g id="Capa_5" data-name="Capa 5"><path d="M670.11,208.62c-3.73-36.34-30.86-64.53-63.77-64.53H390.83c-33.57,0-61.41,27.95-66.54,64.53a86.31,86.31,0,0,0-.86,12.23V702.52c0,37.11,26.41,67.19,59,67.19H611.56c32.59,0,59-30.08,59-67.19V217.22A81.29,81.29,0,0,0,670.11,208.62ZM358,500.71a8.12,8.12,0,0,1,8.12-8.11h93.33a8.11,8.11,0,0,1,8.11,8.11v66.41a8.11,8.11,0,0,1-8.11,8.11H366.15a8.12,8.12,0,0,1-8.12-8.11ZM468.71,690.39a8.12,8.12,0,0,1-8.11,8.12H367.27a8.12,8.12,0,0,1-8.11-8.12V624a8.12,8.12,0,0,1,8.11-8.12H460.6a8.12,8.12,0,0,1,8.11,8.12Zm0-248.1a8.11,8.11,0,0,1-8.11,8.11H367.27a8.11,8.11,0,0,1-8.11-8.11V375.88a8.11,8.11,0,0,1,8.11-8.11H460.6a8.11,8.11,0,0,1,8.11,8.11Zm0-124.83a8.12,8.12,0,0,1-8.11,8.12H367.27a8.12,8.12,0,0,1-8.11-8.12v-66.4a8.11,8.11,0,0,1,8.11-8.11H460.6a8.11,8.11,0,0,1,8.11,8.11Zm54.82,59.2a8.11,8.11,0,0,1,8.11-8.11H625a8.11,8.11,0,0,1,8.11,8.11v66.4a8.12,8.12,0,0,1-8.11,8.12H531.64a8.12,8.12,0,0,1-8.11-8.12Zm.21,124.61a8.11,8.11,0,0,1,8.11-8.11h93.33a8.11,8.11,0,0,1,8.11,8.11v66.41a8.11,8.11,0,0,1-8.11,8.11H531.85a8.11,8.11,0,0,1-8.11-8.11ZM633.85,690.39a8.12,8.12,0,0,1-8.11,8.12H532.41a8.12,8.12,0,0,1-8.11-8.12V624a8.12,8.12,0,0,1,8.11-8.12h93.33a8.12,8.12,0,0,1,8.11,8.12Zm0-372.93a8.12,8.12,0,0,1-8.11,8.12H532.41a8.12,8.12,0,0,1-8.11-8.12v-66.4a8.11,8.11,0,0,1,8.11-8.11h93.33a8.11,8.11,0,0,1,8.11,8.11Z"/><path d="M315.26,159.45l-34.17,49.17H700.7c4.77,0,7.16-8.3,3.79-13.15l-26-37.36c-12.06-17.36-28.43-27.07-45.48-27l-272.76,1.34C343.4,132.55,327.21,142.25,315.26,159.45Z"/><path d="M369.13,109.77l-23.85,34.32H638.13c3.33,0,5-5.79,2.65-9.18l-18.12-26.07C614.24,96.73,602.82,90,590.92,90L400.56,91C388.76,91,377.46,97.77,369.13,109.77Z"/></g></svg>
